icons/christmas-tree.svg

<svg
  width="24"
  height="24"
  viewBox="0 0 24 24"
  xmlns="http://www.w3.org/2000/svg"
  fill="none"
  stroke="currentColor"
  stroke-width="2"
  stroke-linecap="round"
  stroke-linejoin="round"
>
  <path d="M10 17v4h4v-4" />
  <path d="M19 17H5l4-4-3-1 4-4-2-1 4-4 4 4-2 1 4 4-3 1 4 4z" />
</svg>

<svg width="24" height="24" viewBox="0 0 24 24" fill="none" xmlns="http://www.w3.org/2000/svg">
<path d="M10 17V21H14V17" stroke="white" stroke-width="2" stroke-linecap="round" stroke-linejoin="round"/>
<path d="M19 17H5L9 13L6 12L10 8L8 7L12 3L16 7L14 8L18 12L15 13L19 17Z" stroke="white" stroke-width="2" stroke-linecap="round" stroke-linejoin="round"/>
</svg>
